X:1
T: The Galbally Farmer
T: The Rakes of Kildare
R:Jig
Q:180
K:G
M:6/8
L:1/16
|:D2|G4G2 G2F2G2|A2B2c2 d4e2|=f2e2f2 d2e2d2|c2A2G2 F4D2|
D2G2G2 G2F2G2|A2B2c2 d4e2|=f2e2d2 c2A2^F2|G6 G4F2:|
|:g2f2g2 d2e2f2|g2f2g2 a4g2|=f2e2f2 d2e2d2|c2A2G2 F4d2|
g2f2g2 d2e2f2|g2f2g2 a4g2|=f2e2d2 c2A2^F2|1G6 G4d2:|2G6 G4||

